X: 1
T: Holyrood Strathspey
T: 8x32S 3C (RSCDS Bk 51)
P: Mrs. Grant
C: Isaac Cooper
C: arr. T. Traub 8-12-2017
K: A
M: 4/4
L: 1/8
|: B|"A"A>EA>c "E"B>E!beambr1!E<d|"A"c>e "Bm"d/c/B/A/ "E"G<BB>c|"A"A>EA>c "E"B>E!beambr1!E<d|"Bm"e/f/e/d/ "E"c>B "A"c<A A :|
c|"A"e>AC>A "D"f/e/f/g/ a>f|"A"e>c d/c/B/A/ "E"G<BB>c|"A"e>AC>A "D"f/e/f/g/ a>f|"E"e/f/e/d/ c>B "A"c<AA>c|
"A"e>Ac>A e/d/c/B/ A>E|"D"F<BB>A "E"c<BB>c|"A"A>c"E"B>d "A"c>e"D"d>f|"E"e/f/e/d/ c>B "A"c<A A |]
